X:1
T:Compton, CM
T:Compton, CM
T:Henry Greatorex, 1851
T:Public Domain Courtesy of the Cyber Hymnal™
C:Henry Greatorex, 1851
Z:Public Domain
Z:Courtesy of the Cyber Hymnal™
%%score ( 1 2 ) ( 3 4 )
L:1/8
Q:1/4=110
M:3/4
K:A
V:1 treble 
V:2 treble 
V:3 bass 
V:4 bass 
V:1
 [Ec]2 | [Ec]2 [DB]2 [CA]>[DB] | [CA]2 [B,G]2 [Ge]2 | [Ae]2 [Ed]2 (c>d) | [Ac]2 [GB]2 [EB]2 | %5
 c3 z ^d e2 | [EGe]4 [F^d]2 | [Ee]4 [=GB]2 | B3 d c2 | d4 [^Ec]2 | (c3 d) [Fc]2 | [^Ec]4 [=E=e]2 | %12
 [FA]2 [GB]2 [Ac]2 | c4 [DB]2 | [CA]4 |] %15
V:2
 x2 | x6 | x6 | x4 [EA]2 | x6 | E2 ([EA]2 GA) x | x6 | x6 | F4 (FE) | (FAGF) x2 | F4 x2 | x6 | x6 | %13
 A2 E2 x2 | x4 |] %15
V:3
 A,2 | A,2 G,2 A,2 | E,4 [D,B,]2 | [C,C]2 [B,,G,]2 A,,2 | E,4 [G,B,]2 | A,4 C2 x | B,4 (B,A,) | %7
 [E,G,]4 [E,B,]2 | [D,B,]4 [F,^A,]2 | z2 B,2 [C,G,]2 | [D,F,]4 [D,B,]2 | [C,G,]4 [C,A,]2 | %12
 D,4 A,,2 | [E,A,]4 [E,G,]2 | [A,,A,]4 |] %15
V:4
 A,2 | A,2 G,2 A,2 | E,4 x2 | x4 A,,2 | E,4 x2 | A,4 C2 x | B,4 B,,2 | x6 | x6 | B,,4 x2 | x6 | %11
 x6 | D,4 A,,2 | x6 | x4 |] %15

